svgs/sharp-light/circle-4.svg

<svg xmlns="http://www.w3.org/2000/svg" viewBox="0 0 512 512"><!--! Font Awesome Pro 6.6.0 by @fontawesome - https://fontawesome.com License - https://fontawesome.com/license (Commercial License) Copyright 2024 Fonticons, Inc. --><path d="M256 32a224 224 0 1 1 0 448 224 224 0 1 1 0-448zm0 480A256 256 0 1 0 256 0a256 256 0 1 0 0 512zM145.1 298.1L136.4 320l23.6 0 128 0 0 48 0 16 32 0 0-16 0-48 16 0 16 0 0-32-16 0-16 0 0-80 0-16-32 0 0 16 0 80-104.4 0 63.2-158.1 .8-1.9-34.5 0-68 170.1z"/></svg>

<svg xmlns="http://www.w3.org/2000/svg" viewBox="0 0 512 512"><!--! Font Awesome Pro 6.4.2 by @fontawesome - https://fontawesome.com License - https://fontawesome.com/license (Commercial License) Copyright 2023 Fonticons, Inc. --><path d="M256 32a224 224 0 1 1 0 448 224 224 0 1 1 0-448zm0 480A256 256 0 1 0 256 0a256 256 0 1 0 0 512zM145.1 298.1L136.4 320H160 288v48 16h32V368 320h16 16V288H336 320V208 192H288v16 80H183.6l63.2-158.1 .8-1.9H213.2l-68 170.1z"/></svg>
